!!!OTL: Wha Wadna Fight for Charlie?
!!!ARE: Scotland
!!!AMD: Pentatonic
**kern
*>[A,B,A]
*>A
=1-
*clefG2
*k[b-]
*met(C)
*M4/4
{4f/
8.f/L
16g/Jk
8.a/L
16g/Jk
8a/L
8cc/J}
=2
{4f/
8.f/L
16g/Jk
8.a/L
16cc/Jk
4g/}
=3
{4f/
8.f/L
16g/Jk
8.a/L
16g/Jk
16a/LK
8.cc/J}
=4
{8dd\L
8ff\J
8cc\L
8ff\J
8a\L
8cc\J
4g;/}
!! Fine
=5
*>B
{8a\L
8cc\J
8cc\L
8dd\J
8.ff\L
16cc\Jk
8dd\L
8cc\J}
=6
{8a\L
8cc\J
8cc\L
8dd\J
8.ff\L
16a\Jk
4g/}
=7
{8a\L
8cc\J
8cc\L
8dd\J
8.ff\L
16cc\Jk
8dd\L
8cc\J}
=8
{8dd\L
8ff\J
8cc\L
8ff\J
8a\L
8cc\J
4g/}
!! Da Capo al Fine
=|!
*-
